X: 14893
T: Gatehouse Maid, The
R: reel
M: 4/4
K: Gmajor
|A2B/c/d edBA|~G3A GEDB|A2B/c/d edB/c/d|1 egdB {c}BABG:|2 efdB {c}BAA2||
~a2ea {b}agef|~g2dg ~g2dg|~a2ea {b}agab|gedB {c}BAA2|
~a3 b agef|~g3a g2ge|dega b/a/g ab|gedB {c}BAA2||

